!!!COM: Vivaldi, Antonio Lucio
!!!CDT: 1678/03/04-1741/08/28
!!!OPR: 12 sonatas for two violins and basso continuo
!!!OTL: Sonata in E major, op. @{OPS}, no. @{ONM} (@{SCT})
!!!OPS: 1
!!!ONM: 4
!!!OMV: 1. [Largo]
!!!SCT: RV 66
!!!SCA: Antonio Vivaldi: Thematisch-systematisches Verzeichnis seiner Werke (Ryom-Verzeichnis)
!!!OMD: Largo
!!!key: E
**kern	**fb	**kern	**kern
*part3	*	*part2	*part1
*staff3	*	*staff2	*staff1
*ICstr&ICklav	*	*ICstr	*ICstr
*Icello&Icemba	*	*Ivioln	*Ivioln
*	*	*I#2	*I#1
*I"Violoncello\nContinuo	*	*I"Violin 2	*I"Violin 1
*I'bc	*	*I'v2	*I'v1
*clefF4	*	*clefG2	*clefG2
*k[f#c#g#d#]	*	*k[f#c#g#d#]	*k[f#c#g#d#]
*E:	*	*E:	*E:
*M4/4	*	*M4/4	*M4/4
*met(c)	*	*met(c)	*met(c)
*MM44	*	*MM44	*MM44
=1	=1	=1	=1
4.E\	.	4.gg#y\	4.bb\
8E\	.	8ee\	8gg#y\
8.AA/L	.	8.ff#y\L	8.aa\L
16AA/k	.	16ff#y\Jk	16aa\Jk
8E/	.	8ee\L	8gg#y\L
8AA/J	6	16ff#y\L	16aa\L
.	.	16ee\JJ	16gg#y\JJ
=2	=2	=2	=2
4BB/	.	[4dd#y\	8ff#y\L
.	.	.	8b\J
16r	.	16dd#y\LL]	[4bb\
16B\LL	.	16dd#y\	.
16A\	.	16cc#y\	.
16B\JJ	.	16dd#y\JJ	.
4.c#y\	7	4.ee\	16bb\LL]
.	.	.	16bb\
.	.	.	16aa\
.	.	.	16gg#y\JJ
.	6	.	8aa\L
8d#y\	5-r	8ff#y\	8aa\J
=3	=3	=3	=3
[4e\	5 4	4b\	8aa\L
.	X 3	.	8gg#y\J
16e\LL]	6	16r	[4ccc#y\
16e\	.	16gg#y\LL	.
16f#y\	.	16aa\	.
16e\JJ	.	16gg#y\JJ	.
[4d#y\	7	[4ff#y\	8ccc#y\L]
.	.	.	8ff#y\J
16d#y\LL]	6	16ff#y\LL]	[4bb\
16d#y\	.	16ff#y\	.
16e\	.	16gg#y\	.
16d#y\JJ	.	16ff#y\JJ	.
!!LO:LB:g=original
=4	=4	=4	=4
[4c#y\	7	[4ee\	8bb\L]
.	.	.	8ee\J
16c#y\LL]	6	16ee\LL]	2aa\
16c#y\	.	16ee\	.
16d#y\	.	16ff#y\	.
16c#y\JJ	.	16ee\JJ	.
4.B\	7 5	8dd#y\L	.
.	.	16cc#y\L	.
.	.	16dd#y\JJ	.
.	6 4	8ee\L	8gg#y\L
8A\	6	16ff#y\L	16aa\L
.	.	16ee\JJ	16gg#y\JJ
=5	=5	=5	=5
8B\L	.	8dd#y\L	8ff#y\L
8E\	.	8ee\	16gg#y\L
.	.	.	16aa\JJ
8B\	5 4	8.ee\	4ff#y\T
8BB\J	3	.	.
.	.	16dd#y\Jk	.
8E\L	.	4ee\	4ee\
8F#y\	.	.	.
8G#y\	6	8ee\L	8bb\L
8E\J	.	16ff#y\L	16aa\L
.	.	16ee\JJ	16gg#y\JJ
=6	=6	=6	=6
8B\L	.	4.dd#y\	8ff#y\L
16BB\L	.	.	16gg#y\L
16C#y\JJ	.	.	16aa#y\JJ
8D#y/L	6	.	8bb\L
8BB/J	.	8dd#y\	8b\J
8E\L	6 5	[2cc#y\	[2b\
16E\L	.	.	.
16F#y\JJ	.	.	.
8G#y\L	.	.	.
8E\J	.	.	.
=7	=7	=7	=7
8F#y/L	5 4	2cc#y\]	4b\]
8E/	.	.	.
8F#y/	#	.	4a#X/t
8FF#y/J	.	.	.
2BB/;	.	2dd#y\;	2b\;
==	==	==	==
*-	*-	*-	*-
!!!SMS: RV 66 / Estienne Roger (No. 363), Amsterdam [facs.]
!!!ENC: Fran Bennion   rev. 05/12/21 E Correia
!!!END: 2004/10/02
!!!ONB: Converted from MuseData with musedata2hum on Sat May 11 12:01:54 2024
!!!YEM: (C) 2004, 2019 Center for Computer Assisted Research in the Humanities
!!!system-decoration: [(s1,s2,s3)]
!!!URL-info: https://wiki.ccarh.org/wiki/MuseData:_Antonio_Vivaldi#Op._1:_Suonate_da_camera_a_tr.C3.A8.2C_due_violini_e_violone_o_cembalo Information about Vivaldi Op. 1 on the CCARH wiki
!!!URL-pdf: https://pdf.musedata.org/vivaldi-op01-no04.pdf#page=1 MuseData edition
!!!URL-pdf: https://s9.imslp.org/files/imglnks/usimg/1/18/IMSLP280399-PMLP10351-Vivaldi_Sonatas_Op_1_-_Violino_Primo.pdf#page=7 Violino primo part, Amsterdam: Estienne Roger, n.d.(ca.1723). Plate 363.
!!!URL-pdf: https://s9.imslp.org/files/imglnks/usimg/d/d5/IMSLP280400-PMLP10351-Vivaldi_Sonatas_Op_1_-_Violino_Secondo.pdf#page=6 Violino secondo part, Amsterdam: Estienne Roger, n.d.(ca.1723). Plate 363.
!!!URL-pdf: https://s9.imslp.org/files/imglnks/usimg/8/89/IMSLP280401-PMLP10351-Vivaldi_Sonatas_Op_1_-_Organo_e_Violoncello.pdf#page=6 Organo e Violoncello parts, Amsterdam: Estienne Roger, n.d.(ca.1723). Plate 363.
!!!URL-youtube: https://www.youtube.com/watch?v=P5HHPe_W6Uo&t=3884s L'Arte dell'Arco
!!!title: @{OTL}, mov. @{OMV}
!!!filter-vcross: vcross
!!!mei: scoreDef@tempo.dist="6"
!!!EEV: 2024/05/11
!!!source-file: https://bitbucket.org/musedata/vivaldi/src/master/roger/op1/no04/stage2/01/01
!!!source-file: https://bitbucket.org/musedata/vivaldi/src/master/roger/op1/no04/stage2/01/02
!!!source-file: https://bitbucket.org/musedata/vivaldi/src/master/roger/op1/no04/stage2/01/03
!!!source-file: https://bitbucket.org/musedata/vivaldi/src/master/roger/op1/no04/stage2/01/04
